X: 21769
T: King Of The Pipers
R: jig
M: 6/8
K: Cdorian
|:ecB cFF|FGF cAF|ecB cFF|FGF BGB|
ecB cFF|FGF cAF|~A3 ~G3|1 FGA BGB:|2 FGA B2e||
K: Fmaj
|:f2g agf|gcc cde|~f2g agf|ac'a bag|
f2g agf|gcc cdc|~A3 ~G3|1 FGA B2e:|2 FGA B2c||
|:~d3 cBc|d2G G2c|d_ed c2B|A2F FAc|
~d3 cBc|d2G GBd|fef c2B|1 A2F FAc:|2 A2F F2c||

